src/images/icons/chat-empty.svg

<?xml version="1.0" encoding="UTF-8"?>
<svg width="90px" height="80px" viewBox="0 0 90 80" version="1.1" xmlns="http://www.w3.org/2000/svg" xmlns:xlink="http://www.w3.org/1999/xlink">
    <!-- Generator: Sketch 49.2 (51160) - http://www.bohemiancoding.com/sketch -->
    <title>chat-empty</title>
    <desc>Created with Sketch.</desc>
    <g id="Marvel" stroke="none" stroke-width="1" fill="none" fill-rule="evenodd">
        <g id="Marvel_Chat_Empty" transform="translate(-941.000000, -374.000000)" fill="#DDE1E6" fill-rule="nonzero">
            <g id="Chat" transform="translate(369.000000, 7.000000)">
                <g id="Чат" transform="translate(0.000000, 17.000000)">
                    <g id="Group-2" transform="translate(540.000000, 350.000000)">
                        <g id="chat-empty" transform="translate(32.000000, 0.000000)">
                            <path d="M75.8125,68.0223437 C75.8125,67.3214762 75.8668353,66.622286 75.9730724,65.9265443 L76.1085596,65.0392452 L76.8615251,64.5506765 C83.8890922,59.9907727 88,53.2413706 88,46.0123437 C88,41.1957143 86.1804666,36.5862652 82.8556525,32.6820685 C82.5344515,37.2434254 81.2694003,41.6621808 79.0876447,45.8369054 C76.6913999,50.4214782 73.2975113,54.5067244 69.0096757,57.9769065 C62.4353108,63.2970286 54.2514549,66.7616009 45.4098289,68.0580011 C49.1723542,69.3423344 53.2683939,70.0248437 57.5,70.0248437 C59.1198399,70.0248437 60.728252,69.9237788 62.3186097,69.7245704 L63.2802899,69.6041101 L63.9707415,70.2842691 C68.7088984,74.9517943 73.5506024,77.0370011 80.4771196,77.7351115 C77.5435039,75.1982351 75.8125,71.7624906 75.8125,68.0223437 Z M83,79.930177 C83.2730663,79.943516 83.5468887,79.9551617 83.8214772,79.9653004 C83.5416541,79.8235145 83.2677511,79.6753839 83,79.5211694 L83,79.930177 Z M77.8125,68.0223437 C77.8125,72.393125 80.649375,76.2175 85,78.3170312 L85,80 C76.9434375,79.8189062 69.5479687,78.5857812 62.5671875,71.7090625 C60.915625,71.9159375 59.2240625,72.0248437 57.5,72.0248437 C50.0415625,72.0248437 43.17125,70.0125 37.6864062,66.6309375 C48.9889062,66.59125 59.6596875,62.9703125 67.7515625,56.4221875 C71.8304687,53.1210937 75.0479687,49.248125 77.3151562,44.9104687 C79.7185937,40.3115625 80.9375,35.411875 80.9375,30.3475 C80.9375,29.53125 80.9023437,28.7196875 80.8392187,27.9125 C86.50875,32.5948437 90,38.9767187 90,46.0123437 C90,54.1754687 85.3003125,61.4592187 77.9501562,66.2284375 C77.8607812,66.81375 77.8125,67.4125 77.8125,68.0223437 Z" id="Shape"></path>
                            <path d="M30.2422142,58.9099894 L30.9349795,58.2199922 L31.9049872,58.3428938 C33.7489982,58.5765331 35.6171823,58.695 37.5,58.695 C57.1883387,58.695 73,45.8991274 73,30.3475 C73,14.7958726 57.1883387,2 37.5,2 C17.8117626,2 2,14.7959178 2,30.3475 C2,38.9067366 6.80554638,46.8842132 15.0009695,52.2607091 L15.7483739,52.7510336 L15.8815761,53.6349389 C16.0013022,54.4294182 16.0625,55.2269095 16.0625,56.0260938 C16.0625,60.5394821 13.428457,64.7622033 9.29120013,67.7839395 C18.2466752,67.05861 24.5382435,64.5911676 30.2422142,58.9099894 Z M7,69.2479502 L7,68.0364062 L5,68.0364062 L5.8771085,69.8338157 C6.25922095,69.6473506 6.63370521,69.4519115 7,69.2479502 Z M37.5,0 C58.2107812,0 75,13.5870312 75,30.3475 C75,47.1079687 58.2107812,60.695 37.5,60.695 C35.5110938,60.695 33.5589062,60.5684375 31.6535938,60.3270312 C23.5984375,68.35 14.2964063,69.7885938 5,70 L5,68.0364062 C10.0196875,65.586875 14.0625,61.1253125 14.0625,56.0260938 C14.0625,55.3146875 14.006875,54.61625 13.9039063,53.9329688 C5.4228125,48.3690625 0,39.8710938 0,30.3475 C0,13.5870312 16.789375,0 37.5,0 Z" id="Path"></path>
                        </g>
                    </g>
                </g>
            </g>
        </g>
    </g>
</svg>

<svg width="90" height="80" viewBox="0 0 90 80" xmlns="http://www.w3.org/2000/svg">
    <title>
        chat-empty
    </title>
    <g fill="#DDE1E6" fill-rule="nonzero">
        <path d="M75.813 68.022c0-.7.054-1.4.16-2.095l.136-.888.753-.488C83.889 59.99 88 53.24 88 46.012c0-4.816-1.82-9.426-5.144-13.33-.322 4.561-1.587 8.98-3.768 13.155-2.397 4.584-5.79 8.67-10.078 12.14-6.575 5.32-14.759 8.785-23.6 10.081 3.762 1.284 7.858 1.967 12.09 1.967 1.62 0 3.228-.101 4.819-.3l.961-.12.69.68c4.739 4.667 9.58 6.752 16.507 7.45-2.933-2.537-4.665-5.973-4.665-9.713zM83 79.93c.273.014.547.025.821.035-.28-.141-.553-.29-.821-.444v.41zm-5.188-11.908c0 4.371 2.837 8.195 7.188 10.295V80c-8.057-.181-15.452-1.414-22.433-8.29a40.76 40.76 0 0 1-5.067.315c-7.458 0-14.329-2.013-19.814-5.394 11.303-.04 21.974-3.66 30.066-10.209 4.078-3.3 7.296-7.174 9.563-11.512 2.404-4.598 3.623-9.498 3.623-14.562 0-.817-.036-1.628-.099-2.435C86.51 32.595 90 38.977 90 46.013c0 8.162-4.7 15.446-12.05 20.215-.09.586-.138 1.184-.138 1.794z"/>
        <path d="M30.242 58.91l.693-.69.97.123c1.844.234 3.712.352 5.595.352 19.688 0 35.5-12.796 35.5-28.348C73 14.796 57.188 2 37.5 2 17.812 2 2 14.796 2 30.348c0 8.559 4.806 16.536 13.001 21.913l.747.49.134.884c.12.794.18 1.592.18 2.391 0 4.513-2.634 8.736-6.77 11.758 8.955-.725 15.246-3.193 20.95-8.874zM7 69.248v-1.212H5l.877 1.798c.382-.187.757-.382 1.123-.586zM37.5 0C58.21 0 75 13.587 75 30.348c0 16.76-16.79 30.347-37.5 30.347-1.989 0-3.941-.127-5.846-.368C23.598 68.35 14.296 69.789 5 70v-1.964c5.02-2.45 9.063-6.91 9.063-12.01 0-.711-.056-1.41-.16-2.093C5.424 48.369 0 39.871 0 30.348 0 13.587 16.79 0 37.5 0z"/>
    </g>
</svg>
